X: 4
T: POLKAS: Toureendarby Set
T: Toureendarby / Curragh Races
C: C: Trad.; S: Timmy O'Connor; Laoise Kelly / Séamus Begley / Jackie Daly & Séamus Creagh
C: Set Leaders: Tanya, Anton
Z: Anton Zille ed.; Weejie / CreadurMawnOrganig / benhockenberry at The Session
N: https://thesession.org/members/26966/sets/89997
R: Polka
M: 2/4
L: 1/8
Q: 1/4=140
K: Edor
|:BE FE|BE FE|D>E FA|DE FA|
BE FE|BE FE|D>E FA|1 FE EA:|2 FE E2||
|:e2 dB|ef/e/ dB|AF dF|AB/c/ d2|
ef/e/ dB|ef/e/ dB|AF dF|1 FE EB:|2 FE d>c||
T: Siege of Ennis / Banks of Inverness
K: Gmaj
|:D>E DB,|DE G>A|Bd AB/A/|GE cE|
D>E DB,|DE G>A|Bd AB/A/|1 G2 G/A/G/E/:|2 G2 G>A||
Bd dB|ce e>d|Bd AB/A/|GE ED|
Bd d>B|ce e>f|ge fd|e2 e>f|
ge fd|e/f/e/d/ BA|Bd AB/A/|GE cE|
D>E DB,|DE G>A|Bd AB/A/|G2 G>A||
|:Bd Bd|Bd dB/d/|ed Bd|ed B>A|
Bd Bd|Bd dB/d/|ed BA|AG G2:||
|:GB d2|ed c2|dB GB|A/B/A/G/ ED|
GB d>d|ed c>e|dB GE|1 ED D2:|2 ED GE||
T: Britches Full of Stitches (G)
K: Gmaj
|:G>A BG|AG BG|G>A BG|AG E2|
G>A BG|AG Bd|G>A GE|ED D2:||
|:d>e dB|AG AB|d>e dB|AG E2|
d>e dB|AG AB|G>A GE|1 ED D2:|2 ED DE||

